Newaita-dark/apps/22/com.github.bartzaalberg.lottery.svg

<svg height="22" viewBox="0 0 22 22" width="22" xmlns="http://www.w3.org/2000/svg" xmlns:xlink="http://www.w3.org/1999/xlink"><linearGradient id="a"><stop offset="0" stop-opacity=".313726"/><stop offset=".222222" stop-opacity=".27451"/><stop offset="1" stop-opacity="0"/></linearGradient><radialGradient id="b" cx="450.908936" cy="189.579361" gradientTransform="matrix(.00000012 -.0537161 -.0966889 -.00000007 30.609667 43.721789)" gradientUnits="userSpaceOnUse" r="21.166656" xlink:href="#a"/><radialGradient id="c" cx="450.908936" cy="189.579361" gradientTransform="matrix(-.00000012 .0537161 .0966889 .00000007 -8.779457 -5.175144)" gradientUnits="userSpaceOnUse" r="21.166656" xlink:href="#a"/><radialGradient id="d" cx="450.908936" cy="189.579361" gradientTransform="matrix(-.00000012 -.0537161 .0966889 -.00000007 -8.779457 43.721789)" gradientUnits="userSpaceOnUse" r="21.166656" xlink:href="#a"/><radialGradient id="e" cx="450.908936" cy="189.579361" gradientTransform="matrix(.00000012 .0537161 -.0966889 .00000007 30.609666 -5.175144)" gradientUnits="userSpaceOnUse" r="21.166656" xlink:href="#a"/><linearGradient id="f" gradientTransform="matrix(.00918504 0 0 .0429729 8.569953 9.239164)" gradientUnits="userSpaceOnUse" x1="255.323059" x2="255.323044" y1="233.5" y2="254.666656"><stop offset="0" stop-opacity=".27451"/><stop offset="1" stop-opacity="0"/></linearGradient><linearGradient id="g" gradientUnits="userSpaceOnUse" x1="10.9151166" x2="10.9151166" y1="1.99106697081" y2="19.27333515"><stop offset="0" stop-color="#ef5350"/><stop offset="1" stop-color="#f44336"/></linearGradient><linearGradient id="h" gradientUnits="userSpaceOnUse" x1="10.915104" x2="10.915104" y1="19.27332401286" y2="1.99107548985"><stop offset="0" stop-color="#bdbdbd"/><stop offset="1" stop-color="#e0e0e0"/></linearGradient><path d="m12.507812 19.273438h1.816407v-.910157h-1.816407zm0 0" fill="url(#b)"/><path d="m9.324219 19.273438h-1.820313v.910156h1.820313zm0 0" fill="url(#c)"/><path d="m9.324219 19.273438h-1.820313v-.910157h1.820313zm0 0" fill="url(#d)"/><path d="m12.507812 19.273438h1.816407v.910156h-1.816407zm0 0" fill="url(#e)"/><path d="m9.324219 19.046875h3.183593v1.136719h-3.183593zm0 0" fill="url(#f)"/><path d="m10.914062 1.992188c4.773438 0 8.640626 3.867187 8.640626 8.640624 0 4.773438-3.867188 8.640626-8.640626 8.640626-4.769531 0-8.640624-3.867188-8.640624-8.640626 0-4.773437 3.871093-8.640624 8.640624-8.640624zm0 0" fill="url(#g)"/><path d="m10.914062 19.273438c-4.785156 0-8.640624-3.855469-8.640624-8.640626 0-.027343 0-.058593 0-.085937.046874 4.75 3.882812 8.558594 8.640624 8.558594 4.761719 0 8.597657-3.808594 8.640626-8.558594v.085937c0 4.785157-3.851563 8.640626-8.640626 8.640626zm0 0" fill-opacity=".196078"/><path d="m10.914062 1.992188c-4.785156 0-8.640624 3.851562-8.640624 8.640624v.085938c.046874-4.75 3.882812-8.558594 8.640624-8.558594 4.761719 0 8.597657 3.808594 8.640626 8.558594 0-.03125 0-.058594 0-.085938 0-4.789062-3.851563-8.640624-8.640626-8.640624zm0 0" fill="#fff" fill-opacity=".392157"/><path d="m10.914062 1.925781c-4.820312 0-8.703124 3.882813-8.703124 8.707031 0 4.820313 3.882812 8.703126 8.703124 8.703126 4.824219 0 8.707032-3.882813 8.707032-8.703126 0-4.824218-3.882813-8.707031-8.707032-8.707031zm0 .128907c4.753907 0 8.578126 3.824218 8.578126 8.578124 0 4.75-3.824219 8.574219-8.578126 8.574219-4.75 0-8.574218-3.824219-8.574218-8.574219 0-4.753906 3.824218-8.578124 8.574218-8.578124zm0 0" fill="#212121"/><path d="m10.914062 5.855469c-.25 0-.453124.203125-.453124.457031 0 .214844.148437.394531.351562.441406-.480469 1.007813-1.292969 2.96875-1.714844 2.96875-.402344 0-1.519531-.710937-2.398437-1.507812.074219-.078125.121093-.191406.121093-.3125 0-.25-.203124-.453125-.453124-.453125-.253907 0-.453126.203125-.453126.453125v.007812l.035157.175782c.070312.160156.230469.273437.417969.273437.03125 0 .066406-.003906.09375-.011719l.894531 4.175782c1.230469.382812 3.054687.382812 3.558593.382812.507813 0 2.332032 0 3.558594-.382812l.894532-4.175782c.03125.007813.0625.011719.097656.011719.183594 0 .34375-.113281.414062-.273437l.039063-.175782c0-.003906 0-.003906 0-.007812 0-.25-.203125-.453125-.453125-.453125-.253906 0-.457032.203125-.457032.453125 0 .121094.046876.234375.125.3125-.882812.796875-1.996093 1.507812-2.398437 1.507812-.421875 0-1.238281-1.960937-1.714844-2.96875.203125-.046875.351563-.226562.351563-.441406 0-.253906-.203125-.457031-.457032-.457031zm-3.425781 7.285156.242188 1.128906c.910156.457031 2.730469.457031 3.183593.457031.457032 0 2.273438 0 3.183594-.457031l.242188-1.128906c-1.222656.34375-2.9375.34375-3.425782.34375-.484374 0-2.203124 0-3.425781-.34375zm0 0" fill="url(#h)"/><path d="m10.914062 5.855469c-.25 0-.453124.203125-.453124.457031 0 .039062.003906.078125.011718.113281.050782-.195312.230469-.339843.441406-.339843.214844 0 .390626.144531.441407.339843.007812-.035156.015625-.074219.015625-.113281 0-.253906-.203125-.457031-.457032-.457031zm-.195312 1.09375c-.484375 1.046875-1.226562 2.773437-1.621094 2.773437-.390625 0-1.441406-.664062-2.308594-1.425781-.019531.054687-.050781.105469-.089843.148437.878906.792969 1.996093 1.503907 2.398437 1.503907.421875 0 1.234375-1.960938 1.714844-2.96875-.035156-.007813-.0625-.015625-.09375-.03125zm.390625 0c-.027344.015625-.058594.023437-.089844.03125.476563 1.007812 1.292969 2.96875 1.714844 2.96875.402344 0 1.515625-.710938 2.398437-1.503907-.039062-.042968-.070312-.09375-.09375-.148437-.863281.761719-1.917968 1.425781-2.304687 1.425781-.398437 0-1.136719-1.726562-1.625-2.773437zm-4.742187.5c-.253907 0-.453126.203125-.453126.453125v.007812l.019532.089844c.054687-.1875.226562-.324219.433594-.324219.210937 0 .390624.144531.441406.339844.007812-.035156.011718-.074219.011718-.113281 0-.25-.203124-.453125-.453124-.453125zm9.097656 0c-.253906 0-.457032.203125-.457032.453125 0 .039062.003907.078125.015626.113281.050781-.195313.226562-.339844.441406-.339844.203125 0 .378906.136719.433594.324219l.019531-.089844c0-.003906 0-.003906 0-.007812 0-.25-.203125-.453125-.453125-.453125zm-7.976563 5.691406.054688.242187c1.21875.332032 2.890625.332032 3.371093.332032.480469 0 2.15625 0 3.375-.332032l.050782-.242187c-1.222656.34375-2.9375.34375-3.425782.34375-.484374 0-2.203124 0-3.425781-.34375zm0 0" fill="#fff"/><path d="m11.335938 6.523438c-.054688.136718-.171876.238281-.316407.273437.042969.089844.085938.1875.132813.285156.132812-.078125.21875-.222656.21875-.386719 0-.058593-.011719-.117187-.035156-.171874zm-.84375 0c-.019532.054687-.03125.113281-.03125.171874 0 .164063.085937.308594.214843.386719.046875-.097656.09375-.195312.136719-.285156-.148438-.035156-.265625-.136719-.320312-.273437zm-4.546876 1.589843c-.019531.054688-.03125.113281-.03125.171875v.007813l.035157.175781c.070312.160156.230469.273438.417969.273438.03125 0 .066406-.003907.09375-.011719l.894531 4.175781c1.230469.382812 3.054687.382812 3.558593.382812.507813 0 2.332032 0 3.558594-.382812l.894532-4.175781c.03125.007812.0625.011719.097656.011719.183594 0 .34375-.113282.414062-.273438l.039063-.175781c0-.003907 0-.003907 0-.007813 0-.058594-.011719-.117187-.035157-.171875l-.003906.015625c-.070312.160156-.230468.273438-.414062.273438-.035156 0-.066406-.003906-.097656-.011719l-.894532 4.175781c-1.226562.382813-3.050781.382813-3.558594.382813-.503906 0-2.328124 0-3.558593-.382813l-.894531-4.175781c-.027344.007813-.0625.011719-.09375.011719-.1875 0-.347657-.113282-.417969-.273438zm.84375.003907c-.023437.050781-.050781.101562-.089843.140624.039062.035157.078125.070313.117187.105469.003906-.023437.003906-.050781.003906-.078125 0-.058594-.011718-.117187-.03125-.167968zm8.253907 0c-.023438.050781-.035157.109374-.035157.167968 0 .027344.003907.054688.007813.078125.039063-.035156.078125-.070312.117187-.105469-.039062-.039062-.070312-.089843-.089843-.140624zm-7.554688 5.40625.242188 1.128906c.910156.457031 2.730469.457031 3.183593.457031.457032 0 2.273438 0 3.183594-.457031l.242188-1.128906c-.023438.007812-.050782.015624-.078125.023437l-.164063.765625c-.910156.457031-2.726562.457031-3.183594.457031-.453124 0-2.273437 0-3.183593-.457031l-.164063-.765625c-.023437-.007813-.050781-.015625-.078125-.023437zm0 0" fill-opacity=".235294"/><path d="m959.908384 514.997376c-21.98788 0-39.853033 17.865152-39.853033 40.196593 0 18.895834 13.055304 34.699623 30.920457 38.82235-42.257957 88.638641-113.718567 261.106074-150.823114 261.106074-35.386745 0-133.645083-62.528033-210.946224-132.6144 6.527652-6.871213 10.65038-16.834471 10.65038-27.48485 0-21.98788-17.865153-39.853033-39.853033-39.853033-22.33144 0-39.853032 17.865153-39.853032 39.853033v.687121l3.092046 15.460228c6.184091 14.085986 20.270076 24.049244 36.760986 24.049244 2.748485 0 5.840531-.343561 8.245455-1.030682l78.675383 367.266307c108.221597 33.668941 268.664408 33.668941 312.983729 33.668941 44.662881 0 205.105692 0 312.983728-33.668941l78.675383-367.266307c2.748485.687121 5.49697 1.030682 8.589016 1.030682 16.147349 0 30.233335-9.963258 36.417426-24.049244l3.435606-15.460228c0-.343561 0-.343561 0-.687121 0-21.98788-17.865152-39.853033-39.853032-39.853033-22.331441 0-40.196593 17.865153-40.196593 39.853033 0 10.650379 4.122727 20.613637 10.99394 27.48485-77.644701 70.086367-175.559479 132.6144-210.946223 132.6144-37.104548 0-108.908718-172.467433-150.823114-261.106074 17.865152-4.122727 30.920456-19.926516 30.920456-38.82235 0-22.331441-17.865153-40.196593-40.196593-40.196593zm-301.302668 640.740564 21.300759 99.28902c80.049626 40.196593 240.148876 40.196593 280.001909 40.196593 40.196593 0 199.952283 0 280.001908-40.196593l21.300759-99.28902c-107.534475 30.233334-258.357589 30.233334-301.302667 30.233334-42.601518 0-193.768192 0-301.302668-30.233334zm0 0" fill="none" stroke="#212121" stroke-width="11.338583" transform="scale(.0113699)"/></svg>

<?xml version="1.0" encoding="UTF-8"?>
<svg xmlns="http://www.w3.org/2000/svg" xmlns:xlink="http://www.w3.org/1999/xlink" width="22px" height="22px" viewBox="0 0 22 22" version="1.1">
<defs>
<radialGradient id="radial0" gradientUnits="userSpaceOnUse" cx="450.908936" cy="189.579361" fx="450.908936" fy="189.579361" r="21.166656" gradientTransform="matrix(0.000000119742,-0.0537161,-0.0966889,-0.0000000698078,30.609667,43.721789)">
<stop offset="0" style="stop-color:rgb(0%,0%,0%);stop-opacity:0.313726;"/>
<stop offset="0.222222" style="stop-color:rgb(0%,0%,0%);stop-opacity:0.27451;"/>
<stop offset="1" style="stop-color:rgb(0%,0%,0%);stop-opacity:0;"/>
</radialGradient>
<radialGradient id="radial1" gradientUnits="userSpaceOnUse" cx="450.908936" cy="189.579361" fx="450.908936" fy="189.579361" r="21.166656" gradientTransform="matrix(-0.000000119742,0.0537161,0.0966889,0.0000000698078,-8.779457,-5.175144)">
<stop offset="0" style="stop-color:rgb(0%,0%,0%);stop-opacity:0.313726;"/>
<stop offset="0.222222" style="stop-color:rgb(0%,0%,0%);stop-opacity:0.27451;"/>
<stop offset="1" style="stop-color:rgb(0%,0%,0%);stop-opacity:0;"/>
</radialGradient>
<radialGradient id="radial2" gradientUnits="userSpaceOnUse" cx="450.908936" cy="189.579361" fx="450.908936" fy="189.579361" r="21.166656" gradientTransform="matrix(-0.000000119742,-0.0537161,0.0966889,-0.0000000698078,-8.779457,43.721789)">
<stop offset="0" style="stop-color:rgb(0%,0%,0%);stop-opacity:0.313726;"/>
<stop offset="0.222222" style="stop-color:rgb(0%,0%,0%);stop-opacity:0.27451;"/>
<stop offset="1" style="stop-color:rgb(0%,0%,0%);stop-opacity:0;"/>
</radialGradient>
<radialGradient id="radial3" gradientUnits="userSpaceOnUse" cx="450.908936" cy="189.579361" fx="450.908936" fy="189.579361" r="21.166656" gradientTransform="matrix(0.000000119742,0.0537161,-0.0966889,0.0000000698078,30.609666,-5.175144)">
<stop offset="0" style="stop-color:rgb(0%,0%,0%);stop-opacity:0.313726;"/>
<stop offset="0.222222" style="stop-color:rgb(0%,0%,0%);stop-opacity:0.27451;"/>
<stop offset="1" style="stop-color:rgb(0%,0%,0%);stop-opacity:0;"/>
</radialGradient>
<linearGradient id="linear0" gradientUnits="userSpaceOnUse" x1="255.323059" y1="233.5" x2="255.323044" y2="254.666656" gradientTransform="matrix(0.00918504,0,0,0.0429729,8.569953,9.239164)">
<stop offset="0" style="stop-color:rgb(0%,0%,0%);stop-opacity:0.27451;"/>
<stop offset="1" style="stop-color:rgb(0%,0%,0%);stop-opacity:0;"/>
</linearGradient>
<linearGradient id="linear1" gradientUnits="userSpaceOnUse" x1="254" y1="-168.666672" x2="254" y2="233.5" gradientTransform="matrix(0.0429729,0,0,0.0429729,0,9.239163)">
<stop offset="0" style="stop-color:rgb(93.725491%,32.549021%,31.37255%);stop-opacity:1;"/>
<stop offset="1" style="stop-color:rgb(95.686275%,26.274511%,21.176471%);stop-opacity:1;"/>
</linearGradient>
<linearGradient id="linear2" gradientUnits="userSpaceOnUse" x1="960" y1="1695.118164" x2="960" y2="175.118118" gradientTransform="matrix(0.0113699,0,0,0.0113699,0,0)">
<stop offset="0" style="stop-color:rgb(74.117649%,74.117649%,74.117649%);stop-opacity:1;"/>
<stop offset="1" style="stop-color:rgb(87.843138%,87.843138%,87.843138%);stop-opacity:1;"/>
</linearGradient>
</defs>
<g id="surface1">
<path style=" stroke:none;fill-rule:nonzero;fill:url(#radial0);" d="M 12.507812 19.273438 L 14.324219 19.273438 L 14.324219 18.363281 L 12.507812 18.363281 Z M 12.507812 19.273438 "/>
<path style=" stroke:none;fill-rule:nonzero;fill:url(#radial1);" d="M 9.324219 19.273438 L 7.503906 19.273438 L 7.503906 20.183594 L 9.324219 20.183594 Z M 9.324219 19.273438 "/>
<path style=" stroke:none;fill-rule:nonzero;fill:url(#radial2);" d="M 9.324219 19.273438 L 7.503906 19.273438 L 7.503906 18.363281 L 9.324219 18.363281 Z M 9.324219 19.273438 "/>
<path style=" stroke:none;fill-rule:nonzero;fill:url(#radial3);" d="M 12.507812 19.273438 L 14.324219 19.273438 L 14.324219 20.183594 L 12.507812 20.183594 Z M 12.507812 19.273438 "/>
<path style=" stroke:none;fill-rule:nonzero;fill:url(#linear0);" d="M 9.324219 19.046875 L 12.507812 19.046875 L 12.507812 20.183594 L 9.324219 20.183594 Z M 9.324219 19.046875 "/>
<path style=" stroke:none;fill-rule:nonzero;fill:url(#linear1);" d="M 10.914062 1.992188 C 15.6875 1.992188 19.554688 5.859375 19.554688 10.632812 C 19.554688 15.40625 15.6875 19.273438 10.914062 19.273438 C 6.144531 19.273438 2.273438 15.40625 2.273438 10.632812 C 2.273438 5.859375 6.144531 1.992188 10.914062 1.992188 Z M 10.914062 1.992188 "/>
<path style=" stroke:none;fill-rule:nonzero;fill:rgb(0%,0%,0%);fill-opacity:0.196078;" d="M 10.914062 19.273438 C 6.128906 19.273438 2.273438 15.417969 2.273438 10.632812 C 2.273438 10.605469 2.273438 10.574219 2.273438 10.546875 C 2.320312 15.296875 6.15625 19.105469 10.914062 19.105469 C 15.675781 19.105469 19.511719 15.296875 19.554688 10.546875 C 19.554688 10.574219 19.554688 10.605469 19.554688 10.632812 C 19.554688 15.417969 15.703125 19.273438 10.914062 19.273438 Z M 10.914062 19.273438 "/>
<path style=" stroke:none;fill-rule:nonzero;fill:rgb(100%,100%,100%);fill-opacity:0.392157;" d="M 10.914062 1.992188 C 6.128906 1.992188 2.273438 5.84375 2.273438 10.632812 C 2.273438 10.660156 2.273438 10.6875 2.273438 10.71875 C 2.320312 5.96875 6.15625 2.160156 10.914062 2.160156 C 15.675781 2.160156 19.511719 5.96875 19.554688 10.71875 C 19.554688 10.6875 19.554688 10.660156 19.554688 10.632812 C 19.554688 5.84375 15.703125 1.992188 10.914062 1.992188 Z M 10.914062 1.992188 "/>
<path style=" stroke:none;fill-rule:nonzero;fill:rgb(12.941177%,12.941177%,12.941177%);fill-opacity:1;" d="M 10.914062 1.925781 C 6.09375 1.925781 2.210938 5.808594 2.210938 10.632812 C 2.210938 15.453125 6.09375 19.335938 10.914062 19.335938 C 15.738281 19.335938 19.621094 15.453125 19.621094 10.632812 C 19.621094 5.808594 15.738281 1.925781 10.914062 1.925781 Z M 10.914062 2.054688 C 15.667969 2.054688 19.492188 5.878906 19.492188 10.632812 C 19.492188 15.382812 15.667969 19.207031 10.914062 19.207031 C 6.164062 19.207031 2.339844 15.382812 2.339844 10.632812 C 2.339844 5.878906 6.164062 2.054688 10.914062 2.054688 Z M 10.914062 2.054688 "/>
<path style=" stroke:none;fill-rule:nonzero;fill:url(#linear2);" d="M 10.914062 5.855469 C 10.664062 5.855469 10.460938 6.058594 10.460938 6.3125 C 10.460938 6.527344 10.609375 6.707031 10.8125 6.753906 C 10.332031 7.761719 9.519531 9.722656 9.097656 9.722656 C 8.695312 9.722656 7.578125 9.011719 6.699219 8.214844 C 6.773438 8.136719 6.820312 8.023438 6.820312 7.902344 C 6.820312 7.652344 6.617188 7.449219 6.367188 7.449219 C 6.113281 7.449219 5.914062 7.652344 5.914062 7.902344 C 5.914062 7.90625 5.914062 7.90625 5.914062 7.910156 L 5.949219 8.085938 C 6.019531 8.246094 6.179688 8.359375 6.367188 8.359375 C 6.398438 8.359375 6.433594 8.355469 6.460938 8.347656 L 7.355469 12.523438 C 8.585938 12.90625 10.410156 12.90625 10.914062 12.90625 C 11.421875 12.90625 13.246094 12.90625 14.472656 12.523438 L 15.367188 8.347656 C 15.398438 8.355469 15.429688 8.359375 15.464844 8.359375 C 15.648438 8.359375 15.808594 8.246094 15.878906 8.085938 L 15.917969 7.910156 C 15.917969 7.90625 15.917969 7.90625 15.917969 7.902344 C 15.917969 7.652344 15.714844 7.449219 15.464844 7.449219 C 15.210938 7.449219 15.007812 7.652344 15.007812 7.902344 C 15.007812 8.023438 15.054688 8.136719 15.132812 8.214844 C 14.25 9.011719 13.136719 9.722656 12.734375 9.722656 C 12.3125 9.722656 11.496094 7.761719 11.019531 6.753906 C 11.222656 6.707031 11.371094 6.527344 11.371094 6.3125 C 11.371094 6.058594 11.167969 5.855469 10.914062 5.855469 Z M 7.488281 13.140625 L 7.730469 14.269531 C 8.640625 14.726562 10.460938 14.726562 10.914062 14.726562 C 11.371094 14.726562 13.1875 14.726562 14.097656 14.269531 L 14.339844 13.140625 C 13.117188 13.484375 11.402344 13.484375 10.914062 13.484375 C 10.429688 13.484375 8.710938 13.484375 7.488281 13.140625 Z M 7.488281 13.140625 "/>
<path style=" stroke:none;fill-rule:nonzero;fill:rgb(100%,100%,100%);fill-opacity:1;" d="M 10.914062 5.855469 C 10.664062 5.855469 10.460938 6.058594 10.460938 6.3125 C 10.460938 6.351562 10.464844 6.390625 10.472656 6.425781 C 10.523438 6.230469 10.703125 6.085938 10.914062 6.085938 C 11.128906 6.085938 11.304688 6.230469 11.355469 6.425781 C 11.363281 6.390625 11.371094 6.351562 11.371094 6.3125 C 11.371094 6.058594 11.167969 5.855469 10.914062 5.855469 Z M 10.71875 6.949219 C 10.234375 7.996094 9.492188 9.722656 9.097656 9.722656 C 8.707031 9.722656 7.65625 9.058594 6.789062 8.296875 C 6.769531 8.351562 6.738281 8.402344 6.699219 8.445312 C 7.578125 9.238281 8.695312 9.949219 9.097656 9.949219 C 9.519531 9.949219 10.332031 7.988281 10.8125 6.980469 C 10.777344 6.972656 10.75 6.964844 10.71875 6.949219 Z M 11.109375 6.949219 C 11.082031 6.964844 11.050781 6.972656 11.019531 6.980469 C 11.496094 7.988281 12.3125 9.949219 12.734375 9.949219 C 13.136719 9.949219 14.25 9.238281 15.132812 8.445312 C 15.09375 8.402344 15.0625 8.351562 15.039062 8.296875 C 14.175781 9.058594 13.121094 9.722656 12.734375 9.722656 C 12.335938 9.722656 11.597656 7.996094 11.109375 6.949219 Z M 6.367188 7.449219 C 6.113281 7.449219 5.914062 7.652344 5.914062 7.902344 C 5.914062 7.90625 5.914062 7.90625 5.914062 7.910156 L 5.933594 8 C 5.988281 7.8125 6.160156 7.675781 6.367188 7.675781 C 6.578125 7.675781 6.757812 7.820312 6.808594 8.015625 C 6.816406 7.980469 6.820312 7.941406 6.820312 7.902344 C 6.820312 7.652344 6.617188 7.449219 6.367188 7.449219 Z M 15.464844 7.449219 C 15.210938 7.449219 15.007812 7.652344 15.007812 7.902344 C 15.007812 7.941406 15.011719 7.980469 15.023438 8.015625 C 15.074219 7.820312 15.25 7.675781 15.464844 7.675781 C 15.667969 7.675781 15.84375 7.8125 15.898438 8 L 15.917969 7.910156 C 15.917969 7.90625 15.917969 7.90625 15.917969 7.902344 C 15.917969 7.652344 15.714844 7.449219 15.464844 7.449219 Z M 7.488281 13.140625 L 7.542969 13.382812 C 8.761719 13.714844 10.433594 13.714844 10.914062 13.714844 C 11.394531 13.714844 13.070312 13.714844 14.289062 13.382812 L 14.339844 13.140625 C 13.117188 13.484375 11.402344 13.484375 10.914062 13.484375 C 10.429688 13.484375 8.710938 13.484375 7.488281 13.140625 Z M 7.488281 13.140625 "/>
<path style=" stroke:none;fill-rule:nonzero;fill:rgb(0%,0%,0%);fill-opacity:0.235294;" d="M 11.335938 6.523438 C 11.28125 6.660156 11.164062 6.761719 11.019531 6.796875 C 11.0625 6.886719 11.105469 6.984375 11.152344 7.082031 C 11.285156 7.003906 11.371094 6.859375 11.371094 6.695312 C 11.371094 6.636719 11.359375 6.578125 11.335938 6.523438 Z M 10.492188 6.523438 C 10.472656 6.578125 10.460938 6.636719 10.460938 6.695312 C 10.460938 6.859375 10.546875 7.003906 10.675781 7.082031 C 10.722656 6.984375 10.769531 6.886719 10.8125 6.796875 C 10.664062 6.761719 10.546875 6.660156 10.492188 6.523438 Z M 5.945312 8.113281 C 5.925781 8.167969 5.914062 8.226562 5.914062 8.285156 C 5.914062 8.289062 5.914062 8.289062 5.914062 8.292969 L 5.949219 8.46875 C 6.019531 8.628906 6.179688 8.742188 6.367188 8.742188 C 6.398438 8.742188 6.433594 8.738281 6.460938 8.730469 L 7.355469 12.90625 C 8.585938 13.289062 10.410156 13.289062 10.914062 13.289062 C 11.421875 13.289062 13.246094 13.289062 14.472656 12.90625 L 15.367188 8.730469 C 15.398438 8.738281 15.429688 8.742188 15.464844 8.742188 C 15.648438 8.742188 15.808594 8.628906 15.878906 8.46875 L 15.917969 8.292969 C 15.917969 8.289062 15.917969 8.289062 15.917969 8.285156 C 15.917969 8.226562 15.90625 8.167969 15.882812 8.113281 L 15.878906 8.128906 C 15.808594 8.289062 15.648438 8.402344 15.464844 8.402344 C 15.429688 8.402344 15.398438 8.398438 15.367188 8.390625 L 14.472656 12.566406 C 13.246094 12.949219 11.421875 12.949219 10.914062 12.949219 C 10.410156 12.949219 8.585938 12.949219 7.355469 12.566406 L 6.460938 8.390625 C 6.433594 8.398438 6.398438 8.402344 6.367188 8.402344 C 6.179688 8.402344 6.019531 8.289062 5.949219 8.128906 Z M 6.789062 8.117188 C 6.765625 8.167969 6.738281 8.21875 6.699219 8.257812 C 6.738281 8.292969 6.777344 8.328125 6.816406 8.363281 C 6.820312 8.339844 6.820312 8.3125 6.820312 8.285156 C 6.820312 8.226562 6.808594 8.167969 6.789062 8.117188 Z M 15.042969 8.117188 C 15.019531 8.167969 15.007812 8.226562 15.007812 8.285156 C 15.007812 8.3125 15.011719 8.339844 15.015625 8.363281 C 15.054688 8.328125 15.09375 8.292969 15.132812 8.257812 C 15.09375 8.21875 15.0625 8.167969 15.042969 8.117188 Z M 7.488281 13.523438 L 7.730469 14.652344 C 8.640625 15.109375 10.460938 15.109375 10.914062 15.109375 C 11.371094 15.109375 13.1875 15.109375 14.097656 14.652344 L 14.339844 13.523438 C 14.316406 13.53125 14.289062 13.539062 14.261719 13.546875 L 14.097656 14.3125 C 13.1875 14.769531 11.371094 14.769531 10.914062 14.769531 C 10.460938 14.769531 8.640625 14.769531 7.730469 14.3125 L 7.566406 13.546875 C 7.542969 13.539062 7.515625 13.53125 7.488281 13.523438 Z M 7.488281 13.523438 "/>
<path style="fill:none;stroke-width:11.338583;stroke-linecap:butt;stroke-linejoin:miter;stroke:rgb(12.941177%,12.941177%,12.941177%);stroke-opacity:1;stroke-miterlimit:4;" d="M 959.908384 514.997376 C 937.920504 514.997376 920.055351 532.862528 920.055351 555.193969 C 920.055351 574.089803 933.110655 589.893592 950.975808 594.016319 C 908.717851 682.65496 837.257241 855.122393 800.152694 855.122393 C 764.765949 855.122393 666.507611 792.59436 589.20647 722.507993 C 595.734122 715.63678 599.85685 705.673522 599.85685 695.023143 C 599.85685 673.035263 581.991697 655.17011 560.003817 655.17011 C 537.672377 655.17011 520.150785 673.035263 520.150785 695.023143 C 520.150785 695.366703 520.150785 695.366703 520.150785 695.710264 L 523.242831 711.170492 C 529.426922 725.256478 543.512907 735.219736 560.003817 735.219736 C 562.752302 735.219736 565.844348 734.876175 568.249272 734.189054 L 646.924655 1101.455361 C 755.146252 1135.124302 915.589063 1135.124302 959.908384 1135.124302 C 1004.571265 1135.124302 1165.014076 1135.124302 1272.892112 1101.455361 L 1351.567495 734.189054 C 1354.31598 734.876175 1357.064465 735.219736 1360.156511 735.219736 C 1376.30386 735.219736 1390.389846 725.256478 1396.573937 711.170492 L 1400.009543 695.710264 C 1400.009543 695.366703 1400.009543 695.366703 1400.009543 695.023143 C 1400.009543 673.035263 1382.144391 655.17011 1360.156511 655.17011 C 1337.82507 655.17011 1319.959918 673.035263 1319.959918 695.023143 C 1319.959918 705.673522 1324.082645 715.63678 1330.953858 722.507993 C 1253.309157 792.59436 1155.394379 855.122393 1120.007635 855.122393 C 1082.903087 855.122393 1011.098917 682.65496 969.184521 594.016319 C 987.049673 589.893592 1000.104977 574.089803 1000.104977 555.193969 C 1000.104977 532.862528 982.239824 514.997376 959.908384 514.997376 Z M 658.605716 1155.73794 L 679.906475 1255.02696 C 759.956101 1295.223553 920.055351 1295.223553 959.908384 1295.223553 C 1000.104977 1295.223553 1159.860667 1295.223553 1239.910292 1255.02696 L 1261.211051 1155.73794 C 1153.676576 1185.971274 1002.853462 1185.971274 959.908384 1185.971274 C 917.306866 1185.971274 766.140192 1185.971274 658.605716 1155.73794 Z M 658.605716 1155.73794 " transform="matrix(0.0113699,0,0,0.0113699,0,0)"/>
</g>
</svg>
